X:53
T:The Miller of Drohan
R:reel
M:4/4
L:1/8
K:G
Bd | eE E2 DEB,E | DEGA BAGA | GE E2 DEB,E | DEGA BABd |
eE E2 DEB,E | DEGA BAGA | GE E2 DEB,E | DEGA BdBA ||
G2 BG dGBG | Beef gedB | G2 BG dGBG | GEGA BdBA |
G2 BG dGBG | Beef gfeg | faef dedB | GEGA BABd ||
